X:1
T:Westworld
T:Westworld - Main Theme
T:from the HBO TV series 'Westworld'
T:by Ramin Djawadi (arranged by Cornelius Marx) 
C:Ramin Djawadi (Arranged by Cornelius Marx)
%%score { 1 | 2 }
L:1/8
M:6/8
K:C
V:1 treble nm="Piano" snm="Pno."
V:2 bass 
V:1
 z6 | z6 | z6 | z6 | A,3 C3 | D3 E3 | z6 | z6 | A,3 E3 | D3 C3 | z6 | z6 | A,3 [C,C]3 | %13
 [D,D]3 [E,E]3 | [E,E]6 | D6 | _B,3 F3 | E3 D3 | E6 | z6 | [Ee]2 [Ff] [Ee]2 [Ff] | [Ee][Dd] [Cc]4 | %22
 [Dd] z/ E,/F, z3/2 E,/F, | z3/2 E,/F, z3/2 E,/F, | [Dd]2 [Ee] [Dd]2 [Ee] | [Dd][Cc] [G,G]4 | %26
 [A,A] z/ ^G,/A, z3/2 G,/A, | z3/2 ^G,/A, z3/2 G,/A, | [Ff]2 [Gg] [Ff]2 [Gg] | %29
 [Ff][Ee] [Dd]3 [Ff] | [Ee] z/ E,/G, z3/2 E,/G, | z3/2 E,/G, z3/2 E,/G, | z _B,/C/D z A,/B,/C | %33
 z _A,/_B,/C z G,/A,/B, | A,/C/E/^G/A A,/C/E/G/A | A,/C/E/^G/A A,/C/E/G/A | %36
 A,/C/E/^G/A A,/C/E/G/A | A,/C/E/^G/A A,/C/E/G/A | A,/C/E/^G/A A,/C/E/G/A | %39
 A,/C/E/^G/A A,/C/E/G/A | [Ee]2 [Ff] [Ee]2 [Ff] | [Ee][Dd] [Cc]4 | [Dd]2 [Ee] [Dd]2 [Ee] | %43
 [Dd][Cc] [G,G]4 | [Dd]2 [Ee] [Dd]2 [Ee] | [Dd][Ee] [Gg]3 [Ff] | [Ee] z/ C/D z A,/_B,/C | %47
 z _A,/_B,/C z G,/A,/B, | [EAe]2 [Ff] [EAe]2 [Ff] | [EAe][Ff] [Aca]4 | [cec']3 [Bdb]2 [cec'] | %51
 [Bb][Aa] [Ee]4 | z _B/c/d z A/B/c | z _A/_B/c z G/A/B | [ee']6 | [ff']6 | [ee']6 | [ff']6 | %58
 .[ee']2 z4 |] %59
V:2
 [A,,E,]4- [A,,E,][A,,E,] | [A,,E,]4- [A,,E,][G,,D,] | [F,,C,]4- [F,,C,][F,,C,] | [F,,C,]6 | %4
 [A,,E,]4- [A,,E,][A,,E,] | [A,,E,]4- [A,,E,][G,,D,] | [F,,C,]4- [F,,C,][F,,C,] | [F,,C,]6 | %8
 [A,,E,]4- [A,,E,][A,,E,] | [A,,E,]4- [A,,E,][G,,D,] | [F,,C,]4- [F,,C,][F,,C,] | [F,,C,]6 | %12
 [A,,E,]4- [A,,E,][A,,E,] | [A,,E,]6 | [G,,D,]4- [G,,D,][G,,D,] | [G,,D,]6 | %16
 [_B,,F,]4- [B,,F,][B,,F,] | [_B,,F,]6 | [A,,E,]4- [A,,E,][A,,E,] | [A,,E,]6 | %20
 [F,,C,F,]3 [F,,C,F,]3 | [F,,C,F,]3 [F,,C,F,]3 | D,,/A,,/D,/ z3/2 D,,/A,,/D,/ z3/2 | %23
 D,,/A,,/D,/ z3/2 D,,/A,,/D,/ z3/2 | [G,,D,G,]3 [G,,D,G,]3 | [G,,D,G,]3 [G,,D,G,]3 | %26
 A,,/C,/E,/ z3/2 A,,/C,/E,/ z3/2 | A,,/C,/E,/ z3/2 A,,/C,/E,/ z3/2 | [D,,A,,D,]3 [D,,A,,D,]3 | %29
 [D,,A,,D,]3 [D,,A,,D,]3 | C,,/C,/D,/ z3/2 C,,/C,/D,/ z3/2 | C,,/C,/D,/ z3/2 C,,/C,/D,/ z3/2 | %32
 _B,,/E,/ z2 A,,/E,/ z2 | _A,,/E,/ z2 G,,/E,/ z2 | [A,,E,]3 [A,,E,]3 | [A,,E,]3 [A,,E,]2 [G,,D,] | %36
 [F,,C,]3 [F,,C,]3 | [F,,C,]3 [F,,C,]3 | [A,,E,]3 [A,,E,]3 | [A,,E,]3 [A,,E,][A,,E,][G,,D,] | %40
 !^![F,,C,][F,,C,][F,,C,] !^![F,,C,][F,,C,][F,,C,] | %41
 !^![F,,C,][F,,C,][F,,C,] !^![F,,C,][F,,C,][F,,C,] | %42
 !^![G,,D,][G,,D,][G,,D,] !^![G,,D,][G,,D,][G,,D,] | %43
 !^![G,,D,][G,,D,][G,,D,] !^![G,,D,][G,,D,][G,,D,] | %44
 !^![^G,,E,][G,,E,][G,,E,] !^![G,,E,][G,,E,][G,,E,] | %45
 !^![^G,,E,][G,,E,][G,,E,] !^![G,,E,][G,,E,][G,,E,] | %46
 !^![_B,,F,][B,,F,][B,,F,] !^![A,,E,][A,,E,][A,,E,] | %47
 !^![_A,,E,][A,,E,][A,,E,] !^![G,,E,][G,,E,][G,,E,] | %48
 !^![F,,C,F,][F,,C,F,][F,,C,F,] !^![F,,C,F,][F,,C,F,][F,,C,F,] | %49
 !^![F,,C,F,][F,,C,F,][F,,C,F,] !^![F,,C,F,][F,,C,F,][F,,C,F,] | %50
 !^![D,,A,,D,][D,,A,,D,][D,,A,,D,] !^![D,,A,,D,][D,,A,,D,][D,,A,,D,] | %51
 !^![D,,A,,D,][D,,A,,D,][D,,A,,D,] !^![D,,A,,D,][D,,A,,D,][D,,A,,D,] | _B,/E/ z2 A,/E/ z2 | %53
 _A,/E/ z2 G,/E/ z2 | [A,,,A,,]6- | [A,,,A,,]6- | [A,,,A,,]6- | [A,,,A,,]6- | [A,,,A,,]2 z4 |] %59

